assets/Ice hockey/Flat/ice_hockey_flat.svg

<svg width="32" height="32" viewBox="0 0 32 32" fill="none" xmlns="http://www.w3.org/2000/svg">
<path d="M24.0638 19.2507L21.059 17.5337C20.0349 19.114 18.4641 20.2424 16.6694 20.7153L15.5 25L15.4901 29.107C18.1544 28.8486 20.5003 27.1883 21.61 24.7122L24.0638 19.2507Z" fill="#F3AD61"/>
<path d="M7.54637 20.9622L6.09 20.9622C3.83 20.9622 2 22.7922 2 25.0522C2 27.3122 3.83 29.1422 6.09 29.1422L6.39675 29.1422L8 25L7.54637 20.9622Z" fill="#F3AD61"/>
<path d="M20.9275 17.7298C21.1883 17.3537 21.4173 16.9502 21.61 16.5222L25.2141 8.5L28.2633 9.90387L24.0041 19.3835L20.9275 17.7298Z" fill="#F8312F"/>
<path d="M26.79 4.99223L25.1786 8.57907L28.2478 9.93831L29.85 6.37224C29.95 6.15224 30 5.92223 30 5.68223C30 3.87223 27.53 3.34223 26.79 4.99223Z" fill="#533566"/>
<path d="M23.64 25.5422H29.11C29.6 25.5422 29.99 25.9322 29.99 26.4222V28.2622C29.99 28.7422 29.6 29.1422 29.11 29.1422H23.64C23.16 29.1422 22.76 28.7522 22.76 28.2622V26.4222C22.76 25.9422 23.15 25.5422 23.64 25.5422Z" fill="#533566"/>
<path d="M12.4557 29.1422L13.5 25.0522L13.6053 20.9622H10.5758L9.50003 25.0522L9.42621 29.1422H12.4557Z" fill="#F4F4F4"/>
<path d="M14.76 20.9622H13.6052L12.4556 29.1422H14.76C15.0055 29.1422 15.2491 29.1303 15.49 29.107L16.6694 20.7153C16.0548 20.8772 15.414 20.9622 14.76 20.9622Z" fill="#D3D3D3"/>
<path d="M10.5758 20.9622L9.42621 29.1422H6.39673L7.54635 20.9622H10.5758Z" fill="#D3D3D3"/>
</svg>

<svg xmlns="http://www.w3.org/2000/svg" width="32" height="32" fill="none"><path fill="#F3AD61" d="m24.064 19.25-3.005-1.716a7.516 7.516 0 0 1-4.39 3.181L15.5 25l-.01 4.107a7.495 7.495 0 0 0 6.12-4.395l2.454-5.461ZM7.546 20.962H6.09c-2.26 0-4.09 1.83-4.09 4.09s1.83 4.09 4.09 4.09h.307L8 25l-.454-4.038Z"/><path fill="#F8312F" d="M20.927 17.73c.261-.376.49-.78.683-1.208L25.214 8.5l3.05 1.404-4.26 9.48-3.077-1.654Z"/><path fill="#533566" d="M26.79 4.992 25.179 8.58l3.069 1.36 1.602-3.567c.1-.22.15-.45.15-.69 0-1.81-2.47-2.34-3.21-.69ZM23.64 25.542h5.47c.49 0 .88.39.88.88v1.84c0 .48-.39.88-.88.88h-5.47c-.48 0-.88-.39-.88-.88v-1.84c0-.48.39-.88.88-.88Z"/><path fill="#F4F4F4" d="m12.456 29.142 1.044-4.09.105-4.09h-3.03L9.5 25.052l-.074 4.09h3.03Z"/><path fill="#D3D3D3" d="M14.76 20.962h-1.155l-1.15 8.18h2.305c.245 0 .49-.012.73-.035l1.18-8.392a7.491 7.491 0 0 1-1.91.247ZM10.576 20.962l-1.15 8.18h-3.03l1.15-8.18h3.03Z"/></svg>
